packages/icons/svgs/solid/Source=pin.svg

<svg xmlns="http://www.w3.org/2000/svg" width="12" height="12" viewBox="0 0 12 12"><g clip-path="url(#a)"><path d="M6 0A5.218 5.218 0 0 0 .75 5.25c0 1.425.525 2.775 1.575 3.75.075.075 3.075 2.775 3.15 2.85.3.225.75.225.975 0C6.525 11.775 9.6 9.075 9.6 9c1.05-.975 1.575-2.325 1.575-3.75C11.25 2.325 8.925 0 6 0Zm0 6.75c-.825 0-1.5-.675-1.5-1.5s.675-1.5 1.5-1.5 1.5.675 1.5 1.5-.675 1.5-1.5 1.5Z"/></g><defs><clipPath id="a"><path fill="#fff" d="M0 0h12v12H0z"/></clipPath></defs></svg>

<svg width="12" height="12" viewBox="0 0 12 12" fill="none" xmlns="http://www.w3.org/2000/svg">
<g clip-path="url(#clip0_1560_840)">
<path d="M6 0C3.075 0 0.75 2.325 0.75 5.25C0.75 6.675 1.275 8.025 2.325 9C2.4 9.075 5.4 11.775 5.475 11.85C5.775 12.075 6.225 12.075 6.45 11.85C6.525 11.775 9.6 9.075 9.6 9C10.65 8.025 11.175 6.675 11.175 5.25C11.25 2.325 8.925 0 6 0ZM6 6.75C5.175 6.75 4.5 6.075 4.5 5.25C4.5 4.425 5.175 3.75 6 3.75C6.825 3.75 7.5 4.425 7.5 5.25C7.5 6.075 6.825 6.75 6 6.75Z" fill="black"/>
</g>
<defs>
<clipPath id="clip0_1560_840">
<rect width="12" height="12" fill="white"/>
</clipPath>
</defs>
</svg>
